X: 15
T: Blarney Pilgrim, The
Z: Sean Perry
S: https://thesession.org/tunes/5#setting50909
R: jig
M: 6/8
L: 1/8
K: Dmix
|:DED DEG|A2G ABc|BAG AGE|GEA GED|
DED DEG|A2G ABc|BAG AGE|GED D3:|
|:ded dBG|AGA BGE|ded dBG|ABA GA/B/d|
g2e dBG|AGA BGE|B2G AGE|GED D3:|
|:ADD BAG|A2G ABc|BAG AGE|GEA GED|
A2D BAG|A2G ABc|BAG AGE|GED D3:|

